X:1
T:Overworld Theme
C:Dragon Warrior
G:Game Theme
Z:Oleandra Fields of Silverlode
M:4/4
L:1/8
Q:1/4=160
K:C
D2 A2 G4-|G2 FE D2 C^A,|C=A, E2 D4-|D8|A2 =c2 B4-|B2 GF E2 FG|A8-|A8|
D2 A2 G4-|G2 FE D2 C^A,|C=A, E2 D4-|D8|A2 c2 B4-|B2 GF E2 FG|A8-|A8|
D2 A2 G4-|G2 FE D2 C^A,|C=A, E2 D4-|D8|A2 c2 B4-|B2 GF E2 FG|A8-|A8|